wp-content/plugins/wp-mail-smtp/assets/images/dash-widget/error-icon.svg

<svg width="34" height="34" viewBox="0 0 34 34" fill="none" xmlns="http://www.w3.org/2000/svg">
<path d="M17 0.984375C19.9167 0.984375 22.599 1.71354 25.0469 3.17188C27.4948 4.57812 29.4219 6.50521 30.8281 8.95312C32.2865 11.401 33.0156 14.0833 33.0156 17C33.0156 19.9167 32.2865 22.599 30.8281 25.0469C29.4219 27.4948 27.4948 29.4479 25.0469 30.9062C22.599 32.3125 19.9167 33.0156 17 33.0156C14.0833 33.0156 11.401 32.3125 8.95312 30.9062C6.50521 29.4479 4.55208 27.4948 3.09375 25.0469C1.6875 22.599 0.984375 19.9167 0.984375 17C0.984375 14.0833 1.6875 11.401 3.09375 8.95312C4.55208 6.50521 6.50521 4.57812 8.95312 3.17188C11.401 1.71354 14.0833 0.984375 17 0.984375ZM19.2656 19.7344L19.9688 6.84375H14.0312L14.7344 19.7344H19.2656ZM19.1094 26.4531C19.5781 25.9844 19.8125 25.3594 19.8125 24.5781C19.8125 23.7448 19.5781 23.0938 19.1094 22.625C18.6406 22.1562 17.9375 21.9219 17 21.9219C16.0625 21.9219 15.3333 22.1562 14.8125 22.625C14.3438 23.0938 14.1094 23.7448 14.1094 24.5781C14.1094 25.3594 14.3438 25.9844 14.8125 26.4531C15.3333 26.9219 16.0365 27.1562 16.9219 27.1562C17.8594 27.1562 18.5885 26.9219 19.1094 26.4531Z" fill="#D63638"/>
</svg>

<svg width="34" height="34" fill="none" xmlns="http://www.w3.org/2000/svg"><path d="M17 .984c2.917 0 5.599.73 8.047 2.188a15.401 15.401 0 0 1 5.781 5.781c1.458 2.448 2.188 5.13 2.188 8.047 0 2.917-.73 5.599-2.188 8.047-1.406 2.448-3.333 4.4-5.781 5.86-2.448 1.405-5.13 2.109-8.047 2.109-2.917 0-5.599-.703-8.047-2.11a16.617 16.617 0 0 1-5.86-5.86C1.689 22.6.985 19.917.985 17s.704-5.599 2.11-8.047c1.458-2.448 3.411-4.375 5.86-5.781C11.4 1.714 14.083.984 17 .984Zm2.266 18.75.703-12.89H14.03l.703 12.89h4.532Zm-.157 6.72c.47-.47.703-1.095.703-1.876 0-.833-.234-1.484-.703-1.953-.468-.469-1.172-.703-2.109-.703-.938 0-1.667.234-2.188.703-.468.469-.703 1.12-.703 1.953 0 .781.235 1.406.704 1.875.52.469 1.223.703 2.109.703.937 0 1.666-.234 2.187-.703Z" fill="#D63638"/></svg>
